!!!OTL: Jungfer Doertchen Es ritt ein Ritter sehr wohlgemut,
!!!ARE: Europa, Mitteleuropa, Deutschland (), Sachsen, Altmark
!!!YOR: 3, S. 104
!!    1879 gedruckt in Magdeburg
!!!SCT: Q0057a
!!!YEM: Copyright 1995, estate of Helmut Schaffrath.
**kern
*ICvox
*Ivox
*M4/4
*k[f#]
*G:
{4d
=1
4g
4d
8g
8b
8a
8g
=2
4f#
4d
4d}
{8d
8f#
=3
4a
4a
8a
8b
8cc
8a
=4
4b
4g
4g}
{4g
=5
8.e
16c
8c
8c
8c}
{8e
8g
8e
=6
8e
8d
4d
4d}
{4cc
=7
8b
8dd
8g
8b
8dd
8cc
8a
8f#
=8
8a
8g
4g
4g}
==
!!!AGN: Ballade, Todesahnung, Tod, Selbstmord
!! Dritte und vierte Zeile = Refrain auf sinnfreie Silben.
!!!ONB: ESAC (Essen Associative Code) Database: BALLADE
!!!AMT: simple quadruple
!!!AIN: vox
!!!EED: Helmut Schaffrath
!!!EEV: 1.0
*-
